X:1
T: полька
M:C|
L:1/4
K:F
|:"Dm"Add|+slide+a3g|"Gm"b2{a2b2}ag|"Dm"a2{f2g2}fe|
Addf|+slide+a2a2|"A7"g2fe|"Dm"d2d2:|
|:"Dm"Adde|fff/2e/d|"Gm"ggg/2f/2e|"Dm"+slide+aaa/2g/2f|
"Dm"Adde|+slide+fff/2e/d|"A7"g/2a/gfe|"Dm"d2d2:|
|:"Dm"d2d2|A3A|"Gm"B2AE|"Dm"A2FE|
"Dm"Adde|+slide+a3a|"A7"g/2a/gfe|"Dm"d2d2:|
%%begintext center
Celebrating the life of Zach Konowalchuk
%%endtext

